X: 8443
T: Crabs In The Skillet
R: jig
M: 6/8
K: Gminor
|:D2G ABc|d2B c3|Add cBA|dcB AGF|
D2G ABc|d2B c3|cAc f=ed|1 cAF GFE:|2 cAF GBd||
|:g3 g3|fag f=ed|cd=e fed|cd=e fcA|
Bgg gag|fag f=ed|cd=e fed|1 cAF GBd:|2 cAF GDB,||
|:G,B,D GBd|c2c dcA|BAB Adc|AGF DB,A,|
G,B,D GBd|c2c dcA|BAB Adc|1 AGF G3:|2 AGF G3||

